X:732
%%annotationfont Times-Roman-Bold 12
T:Rose Acre
C:Joe Buchanan's Scottish Tome - Page 516.0
I:516 0
Z:Carl Allison
R:Reel
L:1/8
U:m=!diminuendo(!
U:n=!diminuendo)!
M:C
K:A
V:1
E | m(cnB/A/) m(FnG/A/) ECA,E | (cB/A/) (F/A/E/C/) {C}(B, B,)>E |
m(cnB/A/) m(FnG/A/) mAnG/F/ mEnD/C/ | mDnE/F/ EG  (A2 A) & z2  EG, (A,2 A,) :|
e/d/ | (d/c/).B/.A/ ag/f/ e/d/c/B/ A/G/A/B/ | c/B/A/G/ (c/a/e/A/) {c}(B2  B)e/d/ |
mcnB/A/ mang/f/ mgnf/e/ mfne/d/ | mend/c/ mdnc/B/ (A2 (F0) A)e/d/ |
(d/c/).B/.A/ ag/f/ e/d/c/B/ {B}A/G/A/B/ | c/B/A/G/ (c/a/e/A/) {/c} (B  B)e/d/ |
mcnB/A/ mGnA/B/ mAnG/F/ mEnD/C/ | mDnE/F/ (EG) (A2  A) |]
E | e/c/B/A/ F(G/A/) .E.C.A,.E | e/c/{c}B/A/ F/A/E/C/ (B,2  B,)>E |
e/c/B/A/ F/G/A/B/ A/G/F/E/ D/C/B,/A,/ | mDnE/F/ EG  (,A2  A) & z2  EG, (A,2 A,)  :|
ed | (dc).B.A (b/a/).g/.f/ (e/d/).c/.B/ (A/G/).A/.B/ | c/B/A/G/ (A/a/e/c/) {c}(B2  B).e/.d/ |
(dc).B.A (b/a/).g/.f/ (a/g/).f/.e/ (f/e/).d/.c/ | (f/e/).d/.c/ (e/d/).c/.B/ (A2  A).e/.d/ |
(dc).B.A (b/a/).g/.f/ (e/d/).c/.B/ (A/G/).A/.B/ | c/B/A/G/ (A/a/e/c/) {c}(B2  B).e/.d/ |
m(cnB/A/) m(FnG/A/) mAnG/F/ mEnD/C/ | (mDnE/F/) (EG,) (A,2 A,) |]
%
W:Errata: No facility in abc notation to make the weird slurs in the original scan. Left them out.
W:Also left out some positional markers that would crash to pdf output. Refer to Page 516 scan.

